trunk/public/assets/images/icons/red/new/visibility-visible.svg

<svg width="16" height="16" xmlns="http://www.w3.org/2000/svg" viewBox="0 0 16 16" shape-rendering="geometricPrecision" fill="#cb1800"><defs><mask id="a"><rect fill="#fff" width="100%" height="100%"/><path d="M19.079 1.436h-4.914l-1.516-4.674-1.519 4.674h-4.913l3.975 2.886-1.516 4.673 3.972-2.888 3.972 2.889-1.516-4.674z"/></mask></defs><path fill="#cb1800" d="M13.928 3.94l2.072-1.505h-2.561l-.791-2.435-.791 2.435h-2.562l2.072 1.505-.79 2.437 2.071-1.506 2.071 1.506z"/><g mask="url(#a)"><path d="M8 12.965c-3.308 0-6.327-1.819-7.88-4.746l-.116-.218.116-.219c1.552-2.928 4.572-4.747 7.88-4.747 3.306 0 6.326 1.819 7.88 4.747l.117.219-.117.219c-1.555 2.927-4.574 4.745-7.88 4.745zm-6.935-4.964c1.422 2.493 4.056 4.031 6.935 4.031 2.877 0 5.511-1.538 6.935-4.031-1.424-2.494-4.058-4.033-6.935-4.033-2.879 0-5.513 1.539-6.935 4.033zM8.001 4.988c-.292 0-.568.054-.835.132.355.253.602.648.602 1.118 0 .772-.625 1.397-1.397 1.397-.511 0-.939-.287-1.182-.696-.125.33-.202.685-.202 1.06 0 1.665 1.348 3.013 3.014 3.013 1.663 0 3.012-1.348 3.012-3.013 0-1.663-1.348-3.011-3.012-3.011z"/></g></svg>

<svg width="16" height="16" xmlns="http://www.w3.org/2000/svg" viewBox="0 0 16 16" shape-rendering="geometricPrecision" fill="#cb1800"><defs><mask id="a"><rect fill="#fff" width="100%" height="100%"/><path d="M19.079 1.436h-4.914l-1.516-4.674-1.519 4.674H6.217l3.975 2.886-1.516 4.673 3.972-2.888 3.972 2.889-1.516-4.674z"/></mask></defs><path d="M13.928 3.94L16 2.435h-2.561L12.648 0l-.791 2.435H9.295l2.072 1.505-.79 2.437 2.071-1.506 2.071 1.506z"/><g mask="url(#a)"><path d="M8 12.965A8.905 8.905 0 0 1 .12 8.219l-.116-.218.116-.219A8.903 8.903 0 0 1 8 3.035a8.907 8.907 0 0 1 7.88 4.747l.117.219-.117.219A8.908 8.908 0 0 1 8 12.965zM1.065 8.001A7.97 7.97 0 0 0 8 12.032a7.974 7.974 0 0 0 6.935-4.031A7.974 7.974 0 0 0 8 3.968a7.969 7.969 0 0 0-6.935 4.033zm6.936-3.013c-.292 0-.568.054-.835.132.355.253.602.648.602 1.118 0 .772-.625 1.397-1.397 1.397-.511 0-.939-.287-1.182-.696-.125.33-.202.685-.202 1.06a3.012 3.012 0 1 0 3.014-3.011z"/></g></svg>
